packages/icons/src/assets/default/pip-enter.svg

<svg width="18" height="18" viewBox="0 0 18 18" fill="none" xmlns="http://www.w3.org/2000/svg">
<path fill-rule="evenodd" clip-rule="evenodd" d="M13 2.00037C15.2091 2.00037 17 3.79117 17 6.00025V8.03544C16.8367 8.01208 16.6698 7.99999 16.5 7.99999H15V6.27272C15 5.01753 13.9607 3.99999 12.6786 3.99999H4.32143C3.03934 3.99999 2 5.01753 2 6.27272V11.7273C2 12.9825 3.03934 14 4.32143 14H6V15.5C6 15.6697 6.01208 15.8367 6.03544 15.9999H4C1.79086 15.9999 0 14.2091 0 12.0001V6.00025C0 3.79117 1.79086 2.00037 4 2.00037H13Z" fill="black"/>
<rect x="8" y="10" width="10" height="7" rx="2" fill="black"/>
<path fill-rule="evenodd" clip-rule="evenodd" d="M7.12873 5.54651C6.90308 5.45204 6.64553 5.50439 6.47283 5.67709L3.67656 8.47282C3.50386 8.64552 3.45271 8.90307 3.54598 9.12872C3.63925 9.35438 3.85768 9.5 4.10198 9.5H6.89826C7.22982 9.5 7.5 9.22982 7.5 8.89825V6.10253C7.5 5.85822 7.35438 5.63979 7.12873 5.54651Z" fill="black"/>
</svg>

<svg xmlns="http://www.w3.org/2000/svg" width="18" height="18" fill="currentColor" viewBox="0 0 18 18">
  <path d="M13 2a4 4 0 0 1 4 4v2.035A3.5 3.5 0 0 0 16.5 8H15V6.273C15 5.018 13.96 4 12.679 4H4.32C3.04 4 2 5.018 2 6.273v5.454C2 12.982 3.04 14 4.321 14H6v1.5q0 .255.035.5H4a4 4 0 0 1-4-4V6a4 4 0 0 1 4-4z"/>
  <rect width="10" height="7" x="8" y="10" rx="2"/>
  <path d="M7.129 5.547a.6.6 0 0 0-.656.13L3.677 8.473A.6.6 0 0 0 4.102 9.5h2.796c.332 0 .602-.27.602-.602V6.103a.6.6 0 0 0-.371-.556"/>
</svg>
